img/logo-instagram.svg

<svg xmlns="http://www.w3.org/2000/svg" width="14" height="16"><path fill-rule="evenodd" fill="#EFEBE4" d="M11.5 15.999h-9a2.5 2.5 0 0 1-2.5-2.5v-11a2.5 2.5 0 0 1 2.5-2.5h9a2.5 2.5 0 0 1 2.5 2.5v11a2.5 2.5 0 0 1-2.5 2.5zM7 3.996a3.998 3.998 0 0 0-3.996 4.001c0 2.208 1.789 4 3.996 4a3.998 3.998 0 0 0 3.995-4A3.998 3.998 0 0 0 7 3.996zm5-1.997h-2v2h2v-2zm1 7v-2h-1v.277c-.016-.009-.034-.012-.05-.021.015.165.047.325.047.494 0 2.898-2.237 5.247-4.997 5.247s-4.998-2.349-4.998-5.247c0-.169.033-.329.047-.494-.015.009-.034.012-.049.021v-.277H1v6a2 2 0 0 0 2 2h8a2 2 0 0 0 2-2v-4z"/></svg>

<svg 
 xmlns="http://www.w3.org/2000/svg"
 xmlns:xlink="http://www.w3.org/1999/xlink"
 width="14px" height="16px">
<path fill-rule="evenodd"  fill="rgb(239, 235, 228)"
 d="M11.500,15.999 L2.500,15.999 C1.119,15.999 -0.000,14.880 -0.000,13.499 L-0.000,2.499 C-0.000,1.118 1.119,-0.001 2.500,-0.001 L11.500,-0.001 C12.881,-0.001 14.000,1.118 14.000,2.499 L14.000,13.499 C14.000,14.880 12.881,15.999 11.500,15.999 ZM7.000,3.996 C4.793,3.996 3.004,5.787 3.004,7.997 C3.004,10.205 4.793,11.997 7.000,11.997 C9.206,11.997 10.995,10.205 10.995,7.997 C10.995,5.787 9.206,3.996 7.000,3.996 ZM12.000,1.999 L10.000,1.999 L10.000,3.999 L12.000,3.999 L12.000,1.999 ZM13.000,8.999 C13.000,8.999 13.000,8.999 13.000,8.999 L13.000,8.999 L13.000,6.999 L12.000,6.999 L12.000,7.276 C11.984,7.267 11.966,7.264 11.950,7.255 C11.965,7.420 11.997,7.580 11.997,7.749 C11.997,10.647 9.760,12.996 7.000,12.996 C4.240,12.996 2.002,10.647 2.002,7.749 C2.002,7.580 2.035,7.420 2.049,7.255 C2.034,7.264 2.015,7.267 2.000,7.276 L2.000,6.999 L1.000,6.999 L1.000,8.999 L1.000,8.999 C1.000,8.999 1.000,8.999 1.000,8.999 L1.000,12.999 C1.000,14.103 1.895,14.999 3.000,14.999 L11.000,14.999 C12.104,14.999 13.000,14.103 13.000,12.999 L13.000,8.999 Z"/>
</svg>
